X: 11252
T: Cromlit's Lilt
%R: air, waltz
B: James Oswald "The Caledonian Pocket Companion" v.1 b.1 p.25 #2
Z: 2020 John Chambers <jc:trillian.mit.edu>
M: 3/4
L: 1/8
K: D
%%slurgraces 1
%%graceslurs 1
|: "_Largo"\
d2 A2 Bd | B3 AFB | ABAFEF | D3 E D2 |\
D2 F2 A2 | B2 cd e2 | eg e3 f | d3 e d2 :|
|:\
d2 {de}f2 ed | B2 cd e2 | A2 {AB}c2 BA | G3 AB2 |\
A2 dcdF | G3 A {Bc}d2 | A>BAFEF | D3 E D2 :|


